X: 1
T: Lenochek
R: khorovod
S: transcription by J.Poirier
S: http://www.youtube.com/watch?v=l3t7y2O12mA
S: http://www.youtube.com/watch?v=49WrWW095Eo
N: Presented by Radboud Koop at Pinewoods 2011
M: C
L: 1/4
Q: "Slow"
P: (A1BA2)x3+A2
K: Cm
P: A (intro, chorus):
[|"Cm"[G3E3C3] ([F/D/][G/E/]) | [FD][EC] [EC][DB,] |\
  "Bb"[F2D2] [BG][AF] | "Eb"[G2E2] [B2G2] |
w:Oy, ty_ za-la-ti-stiy lyon, lye-*no-chek,
  "C7"[c3=E3C3] [B/E/-][c/E/] | "Fm"[BF][AF] [AF][GE] |\
  "Bb"([FD][AF]) "G7"([GE][FD]) |[1 "Cm"([c2G2E2C2] "Bb7"[B2A2F2D2]) |][2 "Cm"[c3G3E3C3] "^fine"z |]
w:ty ras-*ty, lye-no-chek, ras-*tsvye-* | | \-tay.
P: B (verse):
|:"Eb"[B/G/][c/A/] [B2G2] [BG] | "Bb"[BG][AF] [cA][BG] |\
  "Eb"[G2E2] [E2E2] | "Fm"[AF][AF] [1"Bb"[GD][FD] :|[2 "G7"[GE][FD] "d.C."y|]
w:1.~Kak__ u bye-re-ga kru-to-va, okh kru-to-va,
w:   U__ a-ko-lach-ka gu-sto-va, okh gu- || sto-va.
w:2.~Uzh,__ kak o-se-nyu lye-no-chek, okh lye-no-chek,
w:   Ya__ svya-zhu  te-bya v~sna-po-chek, okh sna- || po-chek.
w:3.~Ya__ sat-ku s~te-bya lye-no-chek, okh lye-no-chek,
w:   Dru-**gu mi-la-mu pla-to-chek, okh pla- || to-chek.
%%text The A part is both chorus and instrumental interlude.

%%sep 1 1 500
